images/637858.svg

<?xml version="1.0" encoding="UTF-8"?>
<svg xmlns="http://www.w3.org/2000/svg" xmlns:xlink="http://www.w3.org/1999/xlink" width="300pt" height="300pt" viewBox="0 0 300 300" version="1.1">
<defs>
<g>
<symbol overflow="visible" id="glyph0-0">
<path style="stroke:none;" d="M 0.546875 1.9375 L 0.546875 -7.75 L 6.046875 -7.75 L 6.046875 1.9375 Z M 1.171875 1.328125 L 5.4375 1.328125 L 5.4375 -7.140625 L 1.171875 -7.140625 Z M 1.171875 1.328125 "/>
</symbol>
<symbol overflow="visible" id="glyph0-1">
<path style="stroke:none;" d="M 4.328125 -7.28125 C 3.546875 -7.28125 2.921875 -6.984375 2.453125 -6.390625 C 1.992188 -5.804688 1.765625 -5.007812 1.765625 -4 C 1.765625 -2.988281 1.992188 -2.1875 2.453125 -1.59375 C 2.921875 -1.007812 3.546875 -0.71875 4.328125 -0.71875 C 5.117188 -0.71875 5.742188 -1.007812 6.203125 -1.59375 C 6.660156 -2.1875 6.890625 -2.988281 6.890625 -4 C 6.890625 -5.007812 6.660156 -5.804688 6.203125 -6.390625 C 5.742188 -6.984375 5.117188 -7.28125 4.328125 -7.28125 Z M 4.328125 -8.171875 C 5.453125 -8.171875 6.351562 -7.789062 7.03125 -7.03125 C 7.707031 -6.28125 8.046875 -5.269531 8.046875 -4 C 8.046875 -2.738281 7.707031 -1.726562 7.03125 -0.96875 C 6.351562 -0.21875 5.453125 0.15625 4.328125 0.15625 C 3.203125 0.15625 2.300781 -0.21875 1.625 -0.96875 C 0.957031 -1.71875 0.625 -2.726562 0.625 -4 C 0.625 -5.269531 0.957031 -6.28125 1.625 -7.03125 C 2.300781 -7.789062 3.203125 -8.171875 4.328125 -8.171875 Z M 4.328125 -8.171875 "/>
</symbol>
<symbol overflow="visible" id="glyph0-2">
<path style="stroke:none;" d="M 1.078125 -8.015625 L 2.546875 -8.015625 L 6.09375 -1.3125 L 6.09375 -8.015625 L 7.15625 -8.015625 L 7.15625 0 L 5.6875 0 L 2.125 -6.703125 L 2.125 0 L 1.078125 0 Z M 1.078125 -8.015625 "/>
</symbol>
</g>
</defs>
<g id="surface36765">
<rect x="0" y="0" width="300" height="300" style="fill:rgb(100%,100%,100%);fill-opacity:1;stroke:none;"/>
<path style="fill:none;stroke-width:1.2;stroke-linecap:butt;stroke-linejoin:miter;stroke:rgb(0%,0%,0%);stroke-opacity:1;stroke-miterlimit:10;" d="M 234.277344 210.167969 L 235.84375 197.097656 "/>
<path style="fill:none;stroke-width:1.2;stroke-linecap:butt;stroke-linejoin:miter;stroke:rgb(100%,0%,0%);stroke-opacity:1;stroke-miterlimit:10;" d="M 235.84375 197.097656 L 237.410156 184.03125 "/>
<path style="fill:none;stroke-width:1.2;stroke-linecap:butt;stroke-linejoin:miter;stroke:rgb(100%,0%,0%);stroke-opacity:1;stroke-miterlimit:10;" d="M 237.410156 184.03125 L 226.878906 176.136719 "/>
<path style="fill:none;stroke-width:1.2;stroke-linecap:butt;stroke-linejoin:miter;stroke:rgb(0%,0%,0%);stroke-opacity:1;stroke-miterlimit:10;" d="M 226.878906 176.136719 L 216.34375 168.246094 "/>
<path style=" stroke:none;fill-rule:nonzero;fill:rgb(100%,100%,100%);fill-opacity:1;" d="M 233.410156 177.53125 L 242.410156 177.53125 L 242.410156 190.53125 L 233.410156 190.53125 Z M 233.410156 177.53125 "/>
<g style="fill:rgb(100%,0%,0%);fill-opacity:1;">
  <use xlink:href="#glyph0-1" x="233.410156" y="187.432617"/>
</g>
<path style="fill:none;stroke-width:1.2;stroke-linecap:butt;stroke-linejoin:miter;stroke:rgb(0%,0%,0%);stroke-opacity:1;stroke-miterlimit:10;" d="M 216.34375 168.246094 L 192.136719 178.601562 "/>
<path style="fill:none;stroke-width:1.2;stroke-linecap:butt;stroke-linejoin:miter;stroke:rgb(0%,0%,0%);stroke-opacity:1;stroke-miterlimit:10;" d="M 211.484375 163.585938 L 192.121094 171.871094 "/>
<path style="fill:none;stroke-width:1.2;stroke-linecap:butt;stroke-linejoin:miter;stroke:rgb(0%,0%,0%);stroke-opacity:1;stroke-miterlimit:10;" d="M 219.476562 142.109375 L 216.34375 168.246094 "/>
<path style="fill:none;stroke-width:1.2;stroke-linecap:butt;stroke-linejoin:miter;stroke:rgb(0%,0%,0%);stroke-opacity:1;stroke-miterlimit:10;" d="M 192.136719 178.601562 L 171.070312 162.816406 "/>
<path style="fill:none;stroke-width:1.2;stroke-linecap:butt;stroke-linejoin:miter;stroke:rgb(0%,0%,0%);stroke-opacity:1;stroke-miterlimit:10;" d="M 171.070312 162.816406 L 174.203125 136.679688 "/>
<path style="fill:none;stroke-width:1.2;stroke-linecap:butt;stroke-linejoin:miter;stroke:rgb(0%,0%,0%);stroke-opacity:1;stroke-miterlimit:10;" d="M 177.53125 160.941406 L 180.039062 140.03125 "/>
<path style="fill:none;stroke-width:1.2;stroke-linecap:butt;stroke-linejoin:miter;stroke:rgb(0%,0%,0%);stroke-opacity:1;stroke-miterlimit:10;" d="M 171.070312 162.816406 L 146.867188 173.171875 "/>
<path style="fill:none;stroke-width:1.2;stroke-linecap:butt;stroke-linejoin:miter;stroke:rgb(0%,0%,0%);stroke-opacity:1;stroke-miterlimit:10;" d="M 174.203125 136.679688 L 198.40625 126.324219 "/>
<path style="fill:none;stroke-width:1.2;stroke-linecap:butt;stroke-linejoin:miter;stroke:rgb(0%,0%,0%);stroke-opacity:1;stroke-miterlimit:10;" d="M 198.40625 126.324219 L 219.476562 142.109375 "/>
<path style="fill:none;stroke-width:1.2;stroke-linecap:butt;stroke-linejoin:miter;stroke:rgb(0%,0%,0%);stroke-opacity:1;stroke-miterlimit:10;" d="M 196.800781 132.859375 L 213.65625 145.488281 "/>
<path style="fill:none;stroke-width:1.2;stroke-linecap:butt;stroke-linejoin:miter;stroke:rgb(0%,0%,0%);stroke-opacity:1;stroke-miterlimit:10;" d="M 198.40625 126.324219 L 199.976562 113.253906 "/>
<path style="fill:none;stroke-width:1.2;stroke-linecap:butt;stroke-linejoin:miter;stroke:rgb(100%,0%,0%);stroke-opacity:1;stroke-miterlimit:10;" d="M 199.976562 113.253906 L 201.542969 100.1875 "/>
<path style="fill:none;stroke-width:1.2;stroke-linecap:butt;stroke-linejoin:miter;stroke:rgb(0%,0%,0%);stroke-opacity:1;stroke-miterlimit:10;" d="M 219.476562 142.109375 L 231.578125 136.929688 "/>
<path style="fill:none;stroke-width:1.2;stroke-linecap:butt;stroke-linejoin:miter;stroke:rgb(100%,0%,0%);stroke-opacity:1;stroke-miterlimit:10;" d="M 231.578125 136.929688 L 243.679688 131.753906 "/>
<path style="fill:none;stroke-width:1.2;stroke-linecap:butt;stroke-linejoin:miter;stroke:rgb(100%,0%,0%);stroke-opacity:1;stroke-miterlimit:10;" d="M 243.679688 131.753906 L 254.214844 139.644531 "/>
<path style="fill:none;stroke-width:1.2;stroke-linecap:butt;stroke-linejoin:miter;stroke:rgb(0%,0%,0%);stroke-opacity:1;stroke-miterlimit:10;" d="M 254.214844 139.644531 L 264.75 147.539062 "/>
<path style=" stroke:none;fill-rule:nonzero;fill:rgb(100%,100%,100%);fill-opacity:1;" d="M 239.679688 125.253906 L 248.679688 125.253906 L 248.679688 138.253906 L 239.679688 138.253906 Z M 239.679688 125.253906 "/>
<g style="fill:rgb(100%,0%,0%);fill-opacity:1;">
  <use xlink:href="#glyph0-1" x="239.679688" y="135.155273"/>
</g>
<path style="fill:none;stroke-width:1.2;stroke-linecap:butt;stroke-linejoin:miter;stroke:rgb(100%,0%,0%);stroke-opacity:1;stroke-miterlimit:10;" d="M 201.542969 100.1875 L 213.644531 95.007812 "/>
<path style="fill:none;stroke-width:1.2;stroke-linecap:butt;stroke-linejoin:miter;stroke:rgb(0%,0%,0%);stroke-opacity:1;stroke-miterlimit:10;" d="M 213.644531 95.007812 L 225.746094 89.832031 "/>
<path style=" stroke:none;fill-rule:nonzero;fill:rgb(100%,100%,100%);fill-opacity:1;" d="M 197.542969 93.6875 L 206.542969 93.6875 L 206.542969 106.6875 L 197.542969 106.6875 Z M 197.542969 93.6875 "/>
<g style="fill:rgb(100%,0%,0%);fill-opacity:1;">
  <use xlink:href="#glyph0-1" x="197.542969" y="103.588867"/>
</g>
<path style="fill:none;stroke-width:1.2;stroke-linecap:butt;stroke-linejoin:miter;stroke:rgb(0%,0%,0%);stroke-opacity:1;stroke-miterlimit:10;" d="M 146.867188 173.171875 L 125.796875 157.386719 "/>
<path style="fill:none;stroke-width:1.2;stroke-linecap:butt;stroke-linejoin:miter;stroke:rgb(0%,0%,0%);stroke-opacity:1;stroke-miterlimit:10;" d="M 148.472656 166.636719 L 131.617188 154.007812 "/>
<path style="fill:none;stroke-width:1.2;stroke-linecap:butt;stroke-linejoin:miter;stroke:rgb(0%,0%,0%);stroke-opacity:1;stroke-miterlimit:10;" d="M 125.796875 157.386719 L 101.59375 167.742188 "/>
<path style="fill:none;stroke-width:1.2;stroke-linecap:butt;stroke-linejoin:miter;stroke:rgb(0%,0%,0%);stroke-opacity:1;stroke-miterlimit:10;" d="M 98.515625 167.375 L 96.949219 180.445312 "/>
<path style="fill:none;stroke-width:1.2;stroke-linecap:butt;stroke-linejoin:miter;stroke:rgb(100%,0%,0%);stroke-opacity:1;stroke-miterlimit:10;" d="M 96.949219 180.445312 L 95.382812 193.511719 "/>
<path style="fill:none;stroke-width:1.2;stroke-linecap:butt;stroke-linejoin:miter;stroke:rgb(0%,0%,0%);stroke-opacity:1;stroke-miterlimit:10;" d="M 104.667969 168.113281 L 103.101562 181.179688 "/>
<path style="fill:none;stroke-width:1.2;stroke-linecap:butt;stroke-linejoin:miter;stroke:rgb(100%,0%,0%);stroke-opacity:1;stroke-miterlimit:10;" d="M 103.101562 181.179688 L 101.53125 194.25 "/>
<path style="fill:none;stroke-width:1.2;stroke-linecap:butt;stroke-linejoin:miter;stroke:rgb(0%,0%,0%);stroke-opacity:1;stroke-miterlimit:10;" d="M 101.59375 167.742188 L 91.058594 159.851562 "/>
<path style="fill:none;stroke-width:1.2;stroke-linecap:butt;stroke-linejoin:miter;stroke:rgb(0%,0%,100%);stroke-opacity:1;stroke-miterlimit:10;" d="M 91.058594 159.851562 L 80.523438 151.960938 "/>
<path style=" stroke:none;fill-rule:nonzero;fill:rgb(100%,100%,100%);fill-opacity:1;" d="M 94.457031 187.382812 L 103.457031 187.382812 L 103.457031 200.382812 L 94.457031 200.382812 Z M 94.457031 187.382812 "/>
<g style="fill:rgb(100%,0%,0%);fill-opacity:1;">
  <use xlink:href="#glyph0-1" x="94.457031" y="197.28418"/>
</g>
<path style="fill:none;stroke-width:1.2;stroke-linecap:butt;stroke-linejoin:miter;stroke:rgb(0%,0%,100%);stroke-opacity:1;stroke-miterlimit:10;" d="M 80.523438 151.960938 L 82.089844 138.890625 "/>
<path style="fill:none;stroke-width:1.2;stroke-linecap:butt;stroke-linejoin:miter;stroke:rgb(0%,0%,0%);stroke-opacity:1;stroke-miterlimit:10;" d="M 82.089844 138.890625 L 83.65625 125.820312 "/>
<path style="fill:none;stroke-width:1.2;stroke-linecap:butt;stroke-linejoin:miter;stroke:rgb(0%,0%,0%);stroke-opacity:1;stroke-miterlimit:10;" d="M 56.320312 162.3125 L 68.421875 157.136719 "/>
<path style="fill:none;stroke-width:1.2;stroke-linecap:butt;stroke-linejoin:miter;stroke:rgb(0%,0%,100%);stroke-opacity:1;stroke-miterlimit:10;" d="M 68.421875 157.136719 L 80.523438 151.960938 "/>
<path style=" stroke:none;fill-rule:nonzero;fill:rgb(100%,100%,100%);fill-opacity:1;" d="M 76.523438 145.460938 L 84.523438 145.460938 L 84.523438 158.460938 L 76.523438 158.460938 Z M 76.523438 145.460938 "/>
<g style="fill:rgb(0%,0%,100%);fill-opacity:1;">
  <use xlink:href="#glyph0-2" x="76.523438" y="155.362305"/>
</g>
<path style="fill:none;stroke-width:1.2;stroke-linecap:butt;stroke-linejoin:miter;stroke:rgb(0%,0%,0%);stroke-opacity:1;stroke-miterlimit:10;" d="M 83.65625 125.820312 L 62.589844 110.035156 "/>
<path style="fill:none;stroke-width:1.2;stroke-linecap:butt;stroke-linejoin:miter;stroke:rgb(0%,0%,0%);stroke-opacity:1;stroke-miterlimit:10;" d="M 62.589844 110.035156 L 38.382812 120.390625 "/>
<path style="fill:none;stroke-width:1.2;stroke-linecap:butt;stroke-linejoin:miter;stroke:rgb(0%,0%,0%);stroke-opacity:1;stroke-miterlimit:10;" d="M 38.382812 120.390625 L 35.25 146.53125 "/>
<path style="fill:none;stroke-width:1.2;stroke-linecap:butt;stroke-linejoin:miter;stroke:rgb(0%,0%,0%);stroke-opacity:1;stroke-miterlimit:10;" d="M 44.222656 123.742188 L 41.714844 144.652344 "/>
<path style="fill:none;stroke-width:1.2;stroke-linecap:butt;stroke-linejoin:miter;stroke:rgb(0%,0%,0%);stroke-opacity:1;stroke-miterlimit:10;" d="M 35.25 146.53125 L 56.320312 162.3125 "/>
<path style="fill:none;stroke-width:1.2;stroke-linecap:butt;stroke-linejoin:miter;stroke:rgb(0%,0%,0%);stroke-opacity:1;stroke-miterlimit:10;" d="M 53.246094 161.945312 L 51.675781 175.015625 "/>
<path style="fill:none;stroke-width:1.2;stroke-linecap:butt;stroke-linejoin:miter;stroke:rgb(100%,0%,0%);stroke-opacity:1;stroke-miterlimit:10;" d="M 51.675781 175.015625 L 50.109375 188.082031 "/>
<path style="fill:none;stroke-width:1.2;stroke-linecap:butt;stroke-linejoin:miter;stroke:rgb(0%,0%,0%);stroke-opacity:1;stroke-miterlimit:10;" d="M 59.394531 162.683594 L 57.828125 175.75 "/>
<path style="fill:none;stroke-width:1.2;stroke-linecap:butt;stroke-linejoin:miter;stroke:rgb(100%,0%,0%);stroke-opacity:1;stroke-miterlimit:10;" d="M 57.828125 175.75 L 56.261719 188.820312 "/>
<path style=" stroke:none;fill-rule:nonzero;fill:rgb(100%,100%,100%);fill-opacity:1;" d="M 49.183594 181.953125 L 58.183594 181.953125 L 58.183594 194.953125 L 49.183594 194.953125 Z M 49.183594 181.953125 "/>
<g style="fill:rgb(100%,0%,0%);fill-opacity:1;">
  <use xlink:href="#glyph0-1" x="49.183594" y="191.854492"/>
</g>
</g>
</svg>

<svg xmlns="http://www.w3.org/2000/svg" xmlns:xlink="http://www.w3.org/1999/xlink" width="300pt" height="300pt" viewBox="0 0 300 300"><defs><symbol overflow="visible"><path d="M.547 1.938V-7.75h5.5v9.688zm.625-.61h4.266v-8.47H1.171zm0 0"/></symbol><symbol overflow="visible" id="a"><path d="M4.328-7.28c-.78 0-1.406.296-1.875.89-.46.585-.687 1.382-.687 2.39 0 1.012.226 1.813.687 2.406.47.586 1.094.875 1.875.875.79 0 1.414-.288 1.875-.874.457-.593.688-1.394.688-2.406 0-1.008-.23-1.805-.687-2.39-.46-.594-1.086-.89-1.875-.89zm0-.892c1.125 0 2.024.383 2.703 1.14C7.708-6.28 8.048-5.27 8.048-4c0 1.262-.34 2.273-1.016 3.03C6.353-.22 5.454.157 4.33.157S2.3-.22 1.625-.97c-.668-.75-1-1.757-1-3.03 0-1.27.332-2.28 1-3.03.676-.76 1.578-1.142 2.703-1.142zm0 0"/></symbol><symbol overflow="visible" id="b"><path d="M1.078-8.016h1.47l3.546 6.704v-6.704h1.062V0H5.688L2.124-6.703V0H1.078zm0 0"/></symbol></defs><g><path fill="#fff" d="M0 0h300v300H0z"/><path d="M234.277 210.168l1.567-13.07" stroke-width="1.2" stroke="#000" stroke-miterlimit="10" fill="none"/><path d="M235.844 197.098l1.566-13.067M237.41 184.03l-10.53-7.893" stroke-width="1.2" stroke="#f00" stroke-miterlimit="10" fill="none"/><path d="M226.88 176.137l-10.536-7.89" stroke-width="1.2" stroke="#000" stroke-miterlimit="10" fill="none"/><path d="M233.41 177.53h9v13h-9zm0 0" fill="#fff"/><use xlink:href="#a" x="233.41" y="187.433" fill="#f00"/><path d="M216.344 168.246l-24.207 10.356M211.484 163.586l-19.363 8.285M219.477 142.11l-3.133 26.136M192.137 178.602l-21.067-15.786M171.07 162.816l3.133-26.136M177.53 160.94l2.51-20.91M171.07 162.816l-24.203 10.356M174.203 136.68l24.203-10.356M198.406 126.324l21.07 15.785M196.8 132.86l16.856 12.628M198.406 126.324l1.57-13.07" stroke-width="1.2" stroke="#000" stroke-miterlimit="10" fill="none"/><path d="M199.977 113.254l1.566-13.067" stroke-width="1.2" stroke="#f00" stroke-miterlimit="10" fill="none"/><path d="M219.477 142.11l12.1-5.18" stroke-width="1.2" stroke="#000" stroke-miterlimit="10" fill="none"/><path d="M231.578 136.93l12.102-5.176M243.68 131.754l10.535 7.89" stroke-width="1.2" stroke="#f00" stroke-miterlimit="10" fill="none"/><path d="M254.215 139.645l10.535 7.894" stroke-width="1.2" stroke="#000" stroke-miterlimit="10" fill="none"/><path d="M239.68 125.254h9v13h-9zm0 0" fill="#fff"/><use xlink:href="#a" x="239.68" y="135.155" fill="#f00"/><path d="M201.543 100.188l12.102-5.18" stroke-width="1.2" stroke="#f00" stroke-miterlimit="10" fill="none"/><path d="M213.645 95.008l12.1-5.176" stroke-width="1.2" stroke="#000" stroke-miterlimit="10" fill="none"/><path d="M197.543 93.688h9v13h-9zm0 0" fill="#fff"/><use xlink:href="#a" x="197.543" y="103.589" fill="#f00"/><path d="M146.867 173.172l-21.07-15.785M148.473 166.637l-16.856-12.63M125.797 157.387l-24.203 10.355M98.516 167.375l-1.567 13.07" stroke-width="1.2" stroke="#000" stroke-miterlimit="10" fill="none"/><path d="M96.95 180.445l-1.567 13.067" stroke-width="1.2" stroke="#f00" stroke-miterlimit="10" fill="none"/><path d="M104.668 168.113l-1.566 13.067" stroke-width="1.2" stroke="#000" stroke-miterlimit="10" fill="none"/><path d="M103.102 181.18l-1.57 13.07" stroke-width="1.2" stroke="#f00" stroke-miterlimit="10" fill="none"/><path d="M101.594 167.742l-10.535-7.89" stroke-width="1.2" stroke="#000" stroke-miterlimit="10" fill="none"/><path d="M91.06 159.852l-10.537-7.89" stroke-width="1.2" stroke="#00f" stroke-miterlimit="10" fill="none"/><path d="M94.457 187.383h9v13h-9zm0 0" fill="#fff"/><use xlink:href="#a" x="94.457" y="197.284" fill="#f00"/><path d="M80.523 151.96l1.567-13.07" stroke-width="1.2" stroke="#00f" stroke-miterlimit="10" fill="none"/><path d="M82.09 138.89l1.566-13.07M56.32 162.313l12.102-5.176" stroke-width="1.2" stroke="#000" stroke-miterlimit="10" fill="none"/><path d="M68.422 157.137l12.1-5.176" stroke-width="1.2" stroke="#00f" stroke-miterlimit="10" fill="none"/><path d="M76.523 145.46h8v13h-8zm0 0" fill="#fff"/><use xlink:href="#b" x="76.523" y="155.362" fill="#00f"/><path d="M83.656 125.82L62.59 110.035M62.59 110.035L38.383 120.39M38.383 120.39l-3.133 26.14M44.223 123.742l-2.508 20.91M35.25 146.53l21.07 15.782M53.246 161.945l-1.57 13.07" stroke-width="1.2" stroke="#000" stroke-miterlimit="10" fill="none"/><path d="M51.676 175.016l-1.567 13.066" stroke-width="1.2" stroke="#f00" stroke-miterlimit="10" fill="none"/><path d="M59.395 162.684l-1.567 13.066" stroke-width="1.2" stroke="#000" stroke-miterlimit="10" fill="none"/><path d="M57.828 175.75l-1.566 13.07" stroke-width="1.2" stroke="#f00" stroke-miterlimit="10" fill="none"/><path d="M49.184 181.953h9v13h-9zm0 0" fill="#fff"/><use xlink:href="#a" x="49.184" y="191.854" fill="#f00"/></g></svg>
